src/images/icons/question.svg

<svg width="30" height="30" viewBox="0 0 30 30" fill="none" xmlns="http://www.w3.org/2000/svg">
<rect width="30" height="30" rx="15" fill="#6F5FFE"/>
<path d="M14.8469 18.2632C14.5406 18.2632 14.2824 18.1513 14.0721 17.9276C13.8619 17.7039 13.7692 17.4408 13.7942 17.1382C13.8325 16.5855 13.9601 16.1053 14.177 15.6974C14.3939 15.2895 14.7384 14.8684 15.2105 14.4342C15.7336 13.9605 16.1325 13.5492 16.4071 13.2003C16.6816 12.8513 16.8187 12.4534 16.8182 12.0066C16.8182 11.4671 16.6429 11.0197 16.2922 10.6645C15.9416 10.3092 15.4534 10.1316 14.8277 10.1316C14.4194 10.1316 14.0716 10.2205 13.7843 10.3984C13.4969 10.5763 13.2642 10.7966 13.0861 11.0592C12.9075 11.3224 12.6875 11.5 12.4262 11.5921C12.1649 11.6842 11.9128 11.6776 11.6698 11.5724C11.3764 11.4408 11.1755 11.2237 11.0673 10.9211C10.9591 10.6184 10.9813 10.3355 11.1339 10.0724C11.504 9.48026 12.0016 8.98684 12.6268 8.59211C13.252 8.19737 13.9856 8 14.8277 8C16.1675 8 17.1979 8.38474 17.919 9.15421C18.6402 9.92368 19.0005 10.8482 19 11.9276C19 12.5855 18.863 13.1482 18.5889 13.6155C18.3148 14.0829 17.8841 14.6124 17.2966 15.2039C16.8628 15.625 16.5566 15.9671 16.378 16.2303C16.1993 16.4934 16.0781 16.7961 16.0143 17.1382C15.9633 17.4671 15.8293 17.7368 15.6124 17.9474C15.3955 18.1579 15.1403 18.2632 14.8469 18.2632ZM14.8277 23C14.4067 23 14.0461 22.8453 13.746 22.5358C13.4459 22.2263 13.2961 21.8547 13.2966 21.4211C13.2966 20.9868 13.4467 20.615 13.7468 20.3055C14.0469 19.9961 14.4072 19.8416 14.8277 19.8421C15.2488 19.8421 15.6094 19.9968 15.9095 20.3063C16.2096 20.6158 16.3593 20.9874 16.3588 21.4211C16.3588 21.8553 16.2088 22.2271 15.9087 22.5366C15.6086 22.8461 15.2483 23.0005 14.8277 23Z" fill="white"/>
</svg>

<svg width="30" height="30" fill="none" xmlns="http://www.w3.org/2000/svg"><rect width="30" height="30" rx="15" fill="#6F5FFE"/><path d="M14.847 18.263c-.306 0-.565-.112-.775-.335a.988.988 0 0 1-.278-.79c.038-.553.166-1.033.383-1.44.217-.409.561-.83 1.034-1.264.523-.473.921-.885 1.196-1.234.275-.349.412-.747.411-1.193 0-.54-.175-.987-.526-1.342-.35-.356-.839-.533-1.464-.533-.409 0-.756.088-1.044.266a2.28 2.28 0 0 0-.698.661c-.178.263-.399.441-.66.533a1.002 1.002 0 0 1-.756-.02 1.088 1.088 0 0 1-.603-.65.967.967 0 0 1 .067-.85 4.666 4.666 0 0 1 1.493-1.48c.625-.395 1.359-.592 2.2-.592 1.34 0 2.37.385 3.092 1.154.721.77 1.081 1.694 1.081 2.774 0 .657-.137 1.22-.411 1.688-.274.467-.705.996-1.292 1.588-.434.421-.74.763-.919 1.026-.179.263-.3.566-.364.908a1.39 1.39 0 0 1-.402.81c-.216.21-.472.315-.765.315zM14.827 23c-.42 0-.78-.155-1.081-.464-.3-.31-.45-.681-.45-1.115 0-.434.15-.806.45-1.116.3-.309.661-.463 1.082-.463.42 0 .781.155 1.082.464.3.31.45.681.449 1.115 0 .434-.15.806-.45 1.116-.3.31-.66.463-1.081.463z" fill="#fff"/></svg>
